X: 908
T: Young Tom Ennis.
B:O'Neill's 908
N:"collected by Ennis."
Z:Transcribed by Tom Keays (htkeays@mailbox.syr.edu)
Z:abc 1.6
M:6/8
R:Jig
L:1/8
K:Am
(A/2B/2) | cBA B>cB | AGE G>AB | cBA Bed | BAA A2(A/2B/2) |
cBA B>cB | AGE GAB | cde ded | cAA A2 :|
|| (e/2^f/2) | g^fe age | dBG G2(e/2^f/2) | g^fe agf | e^f^g a2(e/2^f/2) |
g^fe age | dBG G2(A/2B/2) | cBA Bed | BAA A2 :|


